docs/images/icons/Белкарт.svg

<svg width="23" height="24" viewBox="0 0 23 24" fill="none" xmlns="http://www.w3.org/2000/svg">
<g id="&#208;&#145;&#208;&#181;&#208;&#187;&#208;&#186;&#208;&#176;&#209;&#128;&#209;&#130;">
<path id="Vector" d="M7.27523 20.7353L7.22823 21.5183C7.21523 21.7503 7.19823 21.9823 7.17823 22.2133C7.14923 22.5383 7.11723 23.3203 6.69423 23.3203H6.67823C6.64023 23.3203 6.59223 23.3523 6.59223 23.4043V23.9063C6.59223 23.9613 6.62823 23.9993 6.67823 23.9993H6.71623C7.03423 23.9983 7.31323 23.9643 7.55323 23.6013C7.62923 23.4873 7.69523 23.3593 7.74223 23.2143C7.79356 23.0554 7.83136 22.8925 7.85523 22.7273C7.88223 22.5473 7.90523 22.3503 7.92323 22.1343C7.94023 21.9183 7.95723 21.6843 7.97423 21.4303L7.99423 21.0703H8.99923V23.9123C8.99923 23.9603 9.04123 24.0043 9.09223 23.9993H9.68823C9.75123 23.9993 9.78223 23.9563 9.78223 23.9073V20.6453C9.78133 20.6106 9.77355 20.5764 9.75935 20.5448C9.74515 20.5131 9.72481 20.4846 9.69951 20.4609C9.67421 20.4372 9.64445 20.4187 9.61196 20.4066C9.57946 20.3945 9.54489 20.3889 9.51023 20.3903H7.53523C7.38323 20.3903 7.29323 20.5233 7.28623 20.6333C7.28423 20.6653 7.27623 20.6983 7.27523 20.7353ZM1.10123 24.0003H2.45323C3.12123 24.0243 3.66723 23.5603 3.68923 22.8683C3.68923 22.8083 3.69323 22.7383 3.67723 22.6603C3.55923 22.0943 3.11123 21.7043 2.54123 21.7043H1.63023V21.0613H3.18423C3.24423 21.0623 3.27923 21.0213 3.27723 20.9633V20.5053C3.27823 20.4423 3.25523 20.3903 3.18423 20.3923H1.12023C0.91023 20.3923 0.847229 20.5463 0.847229 20.6463V23.7463C0.847229 23.8863 0.957229 24.0003 1.10123 24.0003ZM17.5372 23.8923V22.6853H18.3922C18.5835 22.6845 18.7716 22.6359 18.9392 22.5437C19.1068 22.4515 19.2487 22.3188 19.3517 22.1576C19.4548 21.9964 19.5158 21.812 19.5292 21.6212C19.5425 21.4303 19.5078 21.2392 19.4282 21.0653C19.3626 20.9164 19.2654 20.7835 19.1433 20.6759C19.0212 20.5684 18.8772 20.4886 18.7212 20.4423C18.5923 20.4068 18.4589 20.39 18.3252 20.3923H17.0192C16.9857 20.3909 16.9523 20.3963 16.9209 20.408C16.8895 20.4198 16.8607 20.4377 16.8363 20.4607C16.8119 20.4837 16.7924 20.5113 16.7788 20.542C16.7652 20.5727 16.7579 20.6057 16.7572 20.6393C16.7572 20.6593 16.7542 20.6823 16.7542 20.7063V23.9133C16.7539 23.9251 16.7561 23.9368 16.7605 23.9477C16.765 23.9587 16.7716 23.9686 16.7801 23.9768C16.7885 23.9851 16.7986 23.9915 16.8096 23.9957C16.8206 23.9999 16.8324 24.0018 16.8442 24.0013H17.4502C17.4661 24.0012 17.4817 23.9968 17.4953 23.9885C17.5089 23.9802 17.5199 23.9684 17.5272 23.9543C17.5351 23.9346 17.5386 23.9134 17.5372 23.8923ZM18.7112 21.5393C18.7115 21.6014 18.6994 21.663 18.6757 21.7204C18.6521 21.7779 18.6172 21.8301 18.5732 21.874C18.5292 21.9179 18.477 21.9526 18.4195 21.9762C18.362 21.9997 18.3004 22.0117 18.2382 22.0113H17.5382V21.0663H18.2062C18.5092 21.0563 18.7112 21.2863 18.7112 21.5393ZM15.5042 23.2493L15.7052 23.9183C15.7222 23.9793 15.7552 24.0003 15.7942 24.0003H16.4452C16.5062 24.0003 16.5452 23.9503 16.5312 23.8883L15.4632 20.6743C15.4132 20.5173 15.3382 20.3923 15.1552 20.3923H14.6932C14.6479 20.3881 14.6023 20.396 14.5611 20.4151C14.5198 20.4343 14.4843 20.464 14.4582 20.5013C14.4211 20.5536 14.3937 20.6122 14.3772 20.6743L13.3102 23.8843C13.2862 23.9563 13.3462 24.0003 13.3942 24.0003H14.0202C14.0402 24.0003 14.0832 24.0033 14.1102 23.9473C14.1165 23.9327 14.1215 23.9176 14.1252 23.9023L14.3252 23.2493H15.5052H15.5042ZM14.5112 22.6103L14.7062 21.9583L14.9022 21.2243H14.9322L15.1232 21.9583L15.3192 22.6103H14.5112ZM12.3442 22.0803V22.0553C12.4541 21.9889 12.5482 21.8995 12.6202 21.7933C12.6977 21.678 12.7527 21.549 12.7822 21.4133L13.0192 20.4933C13.0213 20.4807 13.0206 20.4678 13.0171 20.4555C13.0137 20.4433 13.0076 20.4319 12.9992 20.4223C12.9909 20.4127 12.9806 20.405 12.969 20.3998C12.9575 20.3947 12.9449 20.3921 12.9322 20.3923H12.3702C12.3498 20.3917 12.3294 20.3951 12.3102 20.4023C12.2902 20.4103 12.2752 20.4323 12.2672 20.4643L12.0352 21.3303C12.0146 21.4204 11.9773 21.5059 11.9252 21.5823C11.886 21.6393 11.8343 21.6868 11.7742 21.7213C11.7219 21.7502 11.6651 21.7702 11.6062 21.7803C11.5523 21.7888 11.4978 21.7928 11.4432 21.7923H11.0362V20.4783C11.0364 20.4669 11.0343 20.4557 11.03 20.4452C11.0257 20.4347 11.0193 20.4252 11.0112 20.4173C11.0034 20.4093 10.994 20.403 10.9837 20.3987C10.9734 20.3944 10.9624 20.3922 10.9512 20.3923H10.3472C10.2952 20.3923 10.2542 20.4293 10.2542 20.4743V23.9183C10.2542 23.9663 10.2992 24.0003 10.3472 24.0003H10.9442C10.9932 24.0003 11.0362 23.9673 11.0362 23.9183V22.3893H11.4532C11.5732 22.3873 11.6732 22.3993 11.7562 22.4233C11.836 22.4447 11.9076 22.4893 11.9622 22.5513C12.0162 22.6143 12.0622 22.7043 12.0972 22.8213L12.4142 23.9393C12.4312 23.9843 12.4632 24.0003 12.4962 24.0003H13.0932C13.1692 24.0043 13.1912 23.9313 13.1832 23.8973L12.8632 22.7033C12.8453 22.6321 12.8236 22.562 12.7982 22.4933C12.7759 22.4328 12.7457 22.3757 12.7082 22.3233C12.6688 22.2697 12.6205 22.2233 12.5652 22.1863C12.4965 22.1415 12.4222 22.1058 12.3442 22.0803ZM6.42123 23.8823V23.4083C6.42123 23.3733 6.39423 23.3213 6.33423 23.3213H4.93523C4.90007 23.3209 4.86535 23.3134 4.83322 23.2991C4.80109 23.2849 4.77223 23.2642 4.74842 23.2383C4.72461 23.2124 4.70636 23.1819 4.69481 23.1487C4.68325 23.1155 4.67863 23.0803 4.68123 23.0453V22.3583H6.16723C6.19014 22.3588 6.21233 22.3503 6.22899 22.3345C6.24566 22.3188 6.25545 22.2972 6.25623 22.2743V21.7913C6.25623 21.7413 6.22123 21.7043 6.15823 21.7043H4.68123V21.3193C4.68123 21.1563 4.81723 21.0663 4.93523 21.0663H6.32923C6.34713 21.0673 6.36491 21.0627 6.38012 21.0532C6.39534 21.0437 6.40725 21.0298 6.41423 21.0133C6.41882 21.0025 6.4212 20.9909 6.42123 20.9793V20.4793C6.42123 20.4293 6.38423 20.3923 6.32323 20.3923L4.87123 20.3853C4.61557 20.3857 4.37033 20.4866 4.18834 20.6662C4.00635 20.8458 3.90216 21.0896 3.89823 21.3453V23.0533C3.90162 23.3044 4.00331 23.5442 4.18147 23.7212C4.35962 23.8983 4.60007 23.9984 4.85123 24.0003H6.33223C6.34386 24.0007 6.35545 23.9987 6.3663 23.9945C6.37715 23.9903 6.38703 23.9839 6.39535 23.9758C6.40367 23.9677 6.41026 23.9579 6.4147 23.9472C6.41915 23.9364 6.42137 23.9249 6.42123 23.9133V23.8823ZM21.3762 21.0663V23.9183C21.3762 23.9673 21.3332 24.0003 21.2842 24.0003H20.6872C20.6392 24.0003 20.5942 23.9663 20.5942 23.9183V21.0663H19.6572C19.6092 21.0663 19.5752 21.0213 19.5752 20.9733V20.4843C19.5752 20.4353 19.6082 20.3923 19.6572 20.3923H22.3292C22.3782 20.3923 22.4112 20.4353 22.4112 20.4843V20.9743C22.4112 21.0213 22.3762 21.0663 22.3292 21.0663H21.3762ZM2.87623 22.8263C2.88423 23.1113 2.66023 23.3163 2.37623 23.3163H1.63023V22.3583H2.38123C2.64723 22.3583 2.86723 22.5423 2.87623 22.8273V22.8263Z" fill="#B2B2B2"/>
<path id="Vector_2" fill-rule="evenodd" clip-rule="evenodd" d="M14.4933 15.1803L13.3003 17.3123V16.3723L14.4933 15.1803ZM16.8593 6.80233L14.1433 9.51833C14.1056 9.55635 14.0844 9.60776 14.0844 9.66133C14.0844 9.7149 14.1056 9.7663 14.1433 9.80433L15.4753 11.1363L17.3433 11.3333H13.5033C13.4497 11.3333 13.3982 11.3546 13.3601 11.3924C13.3221 11.4303 13.3006 11.4817 13.3003 11.5353V13.3383L14.5103 14.8783L11.7943 12.1613C11.7564 12.1239 11.7052 12.1029 11.6518 12.1029C11.5985 12.1029 11.5473 12.1239 11.5093 12.1613L10.2133 13.4573L9.97334 15.3823V11.5423C9.97334 11.4885 9.95195 11.4369 9.91388 11.3988C9.87581 11.3607 9.82418 11.3393 9.77034 11.3393H7.83034L6.40034 12.5073L9.11534 9.79133C9.15308 9.7533 9.17425 9.7019 9.17425 9.64833C9.17425 9.59476 9.15308 9.54335 9.11534 9.50533L7.75534 8.14533L5.91334 7.97033H9.75334C9.77995 7.97046 9.80632 7.96533 9.83095 7.95524C9.85557 7.94515 9.87796 7.93029 9.89682 7.91152C9.91568 7.89275 9.93065 7.87044 9.94087 7.84586C9.95108 7.82129 9.95634 7.79494 9.95634 7.76833V5.93433L8.75734 4.43033L11.4733 7.14633C11.5114 7.18407 11.5628 7.20525 11.6163 7.20525C11.6699 7.20525 11.7213 7.18407 11.7593 7.14633L13.0943 5.81033L13.2913 3.92733V7.76733C13.2913 7.87933 13.3823 7.97033 13.4933 7.97033H15.4063L16.8583 6.80233H16.8593ZM17.5453 13.2053V11.5353L18.2283 13.8893L17.5453 13.2053ZM21.2303 10.8873L18.3133 7.97033L17.1453 6.80233L19.2723 7.97033C19.3258 7.97007 19.3771 7.9487 19.4149 7.91087C19.4527 7.87305 19.4741 7.82182 19.4743 7.76833V3.92833C19.4745 3.90163 19.4693 3.87518 19.4592 3.85049C19.449 3.8258 19.4341 3.80337 19.4152 3.78449C19.3963 3.76561 19.3739 3.75067 19.3492 3.74051C19.3245 3.73036 19.298 3.7252 19.2713 3.72533H15.1813L15.8453 3.06133L15.1813 3.72533H13.4943L15.8453 3.06133C15.8641 3.04257 15.8791 3.02028 15.8892 2.99574C15.8994 2.9712 15.9047 2.9449 15.9047 2.91833C15.9047 2.89176 15.8994 2.86546 15.8892 2.84092C15.8791 2.81638 15.8641 2.79409 15.8453 2.77533L13.1293 0.059329C13.1106 0.0405223 13.0883 0.0256015 13.0637 0.0154209C13.0392 0.00524035 13.0129 0 12.9863 0C12.9598 0 12.9335 0.00524035 12.9089 0.0154209C12.8844 0.0256015 12.8621 0.0405223 12.8433 0.059329L9.95734 2.94733L8.72234 4.19633V4.19733L8.72334 4.19433L8.72934 4.18233L9.95734 1.99033C9.95734 1.93676 9.93605 1.88538 9.89817 1.84749C9.86029 1.80961 9.80891 1.78833 9.75534 1.78833H5.91434C5.86084 1.78859 5.80962 1.80996 5.77179 1.84778C5.73397 1.88561 5.7126 1.93684 5.71234 1.99033V7.76733L5.03234 5.41933C4.99427 5.38128 4.94266 5.35991 4.88884 5.35991C4.83502 5.35991 4.7834 5.38128 4.74534 5.41933L2.03034 8.13533C2.01153 8.15409 1.99661 8.17638 1.98643 8.20092C1.97625 8.22546 1.97101 8.25176 1.97101 8.27833C1.97101 8.3049 1.97625 8.3312 1.98643 8.35574C1.99661 8.38028 2.01153 8.40257 2.03034 8.42133L6.11534 12.5063L3.99434 11.3383C3.94084 11.3386 3.88962 11.36 3.85179 11.3978C3.81397 11.4356 3.7926 11.4868 3.79234 11.5403V15.3803C3.79234 15.4923 3.88234 15.5833 3.99434 15.5833H9.77134L7.42534 16.2453C7.3876 16.2834 7.36642 16.3348 7.36642 16.3883C7.36642 16.4419 7.3876 16.4933 7.42534 16.5313L10.1413 19.2473C10.1792 19.285 10.2304 19.3062 10.2838 19.3062C10.3372 19.3062 10.3885 19.285 10.4263 19.2473L13.3013 16.3723V17.3113C13.3013 17.4213 13.3923 17.5133 13.5033 17.5133H17.3443C17.3978 17.5131 17.4491 17.4917 17.4869 17.4539C17.5247 17.416 17.5461 17.3648 17.5463 17.3113V13.2043L18.2293 13.8883C18.2674 13.9261 18.3188 13.9472 18.3723 13.9472C18.4259 13.9472 18.4773 13.9261 18.5153 13.8883L21.2313 11.1723C21.2691 11.1343 21.2903 11.0829 21.2903 11.0293C21.2903 10.9758 21.2691 10.9244 21.2313 10.8863L21.2303 10.8873Z" fill="#B2B2B2"/>
</g>
</svg>

<svg width="23" height="24" fill="none" xmlns="http://www.w3.org/2000/svg"><g fill="#B2B2B2"><path d="m7.275 20.735-.047.783c-.013.232-.03.464-.05.695-.029.325-.06 1.107-.484 1.107h-.016c-.038 0-.086.032-.086.084v.502c0 .055.036.093.086.093h.038c.318 0 .597-.035.837-.398.076-.114.142-.242.19-.387.05-.159.088-.322.112-.487.027-.18.05-.377.068-.593.017-.216.034-.45.051-.704l.02-.36H9v2.842c0 .048.042.092.093.087h.596c.063 0 .094-.043.094-.092v-3.262a.262.262 0 0 0-.272-.255H7.535c-.152 0-.242.133-.249.243-.002.032-.01.065-.01.102ZM1.101 24h1.352c.668.024 1.214-.44 1.236-1.132 0-.06.004-.13-.012-.208-.118-.566-.566-.956-1.136-.956h-.91v-.643h1.553c.06.001.095-.04.093-.098v-.458c.001-.063-.022-.115-.093-.113H1.12c-.21 0-.273.154-.273.254v3.1c0 .14.11.254.254.254Zm16.436-.108v-1.207h.855a1.145 1.145 0 0 0 1.036-1.62 1.122 1.122 0 0 0-.707-.623 1.4 1.4 0 0 0-.396-.05H17.02a.251.251 0 0 0-.262.247c0 .02-.003.043-.003.067v3.207a.086.086 0 0 0 .09.088h.606a.088.088 0 0 0 .077-.047.142.142 0 0 0 .01-.062Zm1.174-2.353a.469.469 0 0 1-.473.472h-.7v-.945h.668c.303-.01.505.22.505.473Zm-3.207 1.71.201.67c.017.06.05.081.09.081h.65c.061 0 .1-.05.086-.112l-1.068-3.214c-.05-.157-.125-.282-.308-.282h-.462a.258.258 0 0 0-.235.11.537.537 0 0 0-.08.172l-1.068 3.21c-.024.072.036.116.084.116h.626c.02 0 .063.003.09-.053a.28.28 0 0 0 .015-.045l.2-.653h1.18Zm-.993-.639.195-.652.196-.734h.03l.191.734.196.652h-.808Zm-2.167-.53v-.025a.889.889 0 0 0 .276-.262 1.1 1.1 0 0 0 .162-.38l.237-.92a.086.086 0 0 0-.05-.093.088.088 0 0 0-.037-.008h-.562a.18.18 0 0 0-.06.01c-.02.008-.035.03-.043.062l-.232.866a.74.74 0 0 1-.11.252.463.463 0 0 1-.319.198.988.988 0 0 1-.163.012h-.407v-1.314a.083.083 0 0 0-.025-.06.083.083 0 0 0-.06-.026h-.604c-.052 0-.093.037-.093.082v3.444c0 .048.045.082.093.082h.597c.05 0 .092-.033.092-.082V22.39h.417c.12-.002.22.01.303.034a.42.42 0 0 1 .206.128c.054.063.1.153.135.27l.317 1.118c.017.045.05.061.082.061h.597c.076.004.098-.069.09-.103l-.32-1.194a2.04 2.04 0 0 0-.065-.21.72.72 0 0 0-.09-.17.573.573 0 0 0-.143-.137.939.939 0 0 0-.22-.106Zm-5.923 1.802v-.474c0-.035-.027-.087-.087-.087H4.935a.258.258 0 0 1-.254-.276v-.687h1.486a.087.087 0 0 0 .09-.084v-.483c0-.05-.036-.087-.099-.087H4.681v-.385c0-.163.136-.253.254-.253H6.33a.087.087 0 0 0 .092-.087v-.5c0-.05-.037-.087-.098-.087l-1.452-.007a.974.974 0 0 0-.973.96v1.708a.96.96 0 0 0 .953.947h1.481a.086.086 0 0 0 .09-.087v-.03Zm14.955-2.816v2.852c0 .05-.043.082-.092.082h-.597c-.048 0-.093-.034-.093-.082v-2.852h-.937c-.048 0-.082-.045-.082-.093v-.489c0-.049.033-.092.082-.092h2.672c.05 0 .082.043.082.092v.49c0 .047-.035.092-.082.092h-.953Zm-18.5 1.76c.008.285-.216.49-.5.49H1.63v-.958h.751c.266 0 .486.184.495.47v-.002Z"/><path fill-rule="evenodd" clip-rule="evenodd" d="M14.493 15.18 13.3 17.312v-.94l1.193-1.192Zm2.366-8.378-2.716 2.716a.203.203 0 0 0 0 .286l1.332 1.332 1.868.197h-3.84a.203.203 0 0 0-.203.202v1.803l1.21 1.54-2.716-2.717a.203.203 0 0 0-.285 0l-1.296 1.296-.24 1.925v-3.84a.203.203 0 0 0-.203-.203H7.83L6.4 12.507l2.715-2.716a.203.203 0 0 0 0-.286l-1.36-1.36-1.842-.175h3.84a.202.202 0 0 0 .203-.202V5.934L8.757 4.43l2.716 2.716a.203.203 0 0 0 .286 0l1.335-1.336.197-1.883v3.84c0 .112.091.203.202.203h1.913l1.452-1.168h.001Zm.686 6.403v-1.67l.683 2.354-.683-.684Zm3.685-2.318L18.313 7.97l-1.168-1.168 2.127 1.168a.203.203 0 0 0 .202-.202v-3.84a.202.202 0 0 0-.203-.203h-4.09l.664-.664-.664.664h-1.687l2.351-.664a.2.2 0 0 0 .044-.22.2.2 0 0 0-.044-.066L13.13.06a.2.2 0 0 0-.22-.044.203.203 0 0 0-.066.044L9.957 2.947l-1.235 1.25.001-.003.006-.012L9.957 1.99a.202.202 0 0 0-.202-.202h-3.84a.203.203 0 0 0-.203.202v5.777l-.68-2.348a.203.203 0 0 0-.287 0L2.03 8.135a.202.202 0 0 0 0 .286l4.085 4.085-2.12-1.168a.203.203 0 0 0-.203.202v3.84c0 .112.09.203.202.203h5.777l-2.346.662a.203.203 0 0 0 0 .286l2.716 2.716a.202.202 0 0 0 .285 0l2.875-2.875v.94c0 .11.091.201.202.201h3.841a.203.203 0 0 0 .202-.202v-4.107l.683.684a.203.203 0 0 0 .286 0l2.716-2.716a.203.203 0 0 0 0-.286v.001Z"/></g></svg>
